X:312
T:The tailor's thimble
R:Reel
O:Ireland
B:Ceol Rince 1 n125
B:Music of Corktown n53 (with key sig of G)
S:Ceol Rince 1 n125
Z:Transcription, chords:Mike Long
M:C|
L:1/8
K:D
cd|:\
"A"cAAG A2dB|"A"cA~A2 "G"dBGB|"A"cAAG ABcd|"A"efge "G"dBGB:|\
"G"b2gb a2ga|
bage dBdg|b2gb abg2|bage dBdg|\
b2gb {b}abg2|bage dBdg|bg~g2 ag~g2|ef{a}ge dBGB|]
